packages/sources/icons/src/vitamix/arrow-go-back-line.svg

<svg width="16" height="16" viewBox="0 0 16 16" xmlns="http://www.w3.org/2000/svg"><path d="M3.88537 4.66668L5.57604 6.35735L4.63337 7.30001L1.33337 4.00001L4.63337 0.700012L5.57604 1.64268L3.88537 3.33335H8.66671C11.6122 3.33335 14 5.72116 14 8.66668C14 11.6122 11.6122 14 8.66671 14H2.66671V12.6667H8.66671C10.8758 12.6667 12.6667 10.8758 12.6667 8.66668C12.6667 6.45754 10.8758 4.66668 8.66671 4.66668H3.88537Z"/></svg>

<svg width="16" height="16" xmlns="http://www.w3.org/2000/svg"><path d="m3.885 4.667 1.691 1.69-.943.943-3.3-3.3 3.3-3.3.943.943-1.69 1.69h4.78a5.333 5.333 0 0 1 0 10.667h-6v-1.333h6a4 4 0 0 0 0-8h-4.78Z"/></svg>
